X: 5503
T: Bunratty Boys
R: slide
M: 12/8
K: Dmajor
e3 efe d2f a2f|e2e efe d2A B2A|
Bee efe d2f a2f|1 efe gfe d3 d3:|2 efe gfe d3 dcB||
Aaa faa Aaa faf|efe gfe d2A B2A|
Aaa faa Aaa faf|1 efe gfe d3 dcB:|2 efe gfe d3 d3||

